X: 1829
T: Are These The Last Days Of Summer?
R: reel
M: 4/4
K: Eminor
B2 GB d2c2|B3 G BcBA|G2 EG B2 A2|F3 D FGFD|
E2 CE G2 F2|D3 D FGFD|E3 E EF G2|G2 F2 D2 FA:|
B2 GB e2 f2|g3 d B3 g|f3 d BABd|e3 E E3 F|
G2 FG e2 d2|B3 G G3 A|B2 GB d2 c2|B2 z2 E3 F|
GFGB e2 f2|g3 d B3 g|f3 d BABd|e3 E E3 F|
G2 FG e2 d2|B3 G G3 A|B2 GB A2 F2|E4EFGA||

